X: 1
T: Shapiro's Korohod
S: Steve Rauch
D: Budowitz "Wedding Without a Bride"
M: C
L: 1/8
K: Gm
D \
| "Gm"G2 B2 d2 g2 | b2 ag ^f g3 | b2 ag (3^fga (3gfe | "Cm"(3def e/d/c/=B/ c4 |
| "Bb"Bc de f=e fg | _ag f=e _dc BA | "Gm"B c2 B "D7"(3dcB B/A/G/^F/ | "Gm"G7 :|
|: D \
| "Gm"GD GA B4 | "D7"Ac B/A/G/^F/ "Gm"G4 | "Cm"c2 e2 ge ce | "Gm"d4 "D7"dc BA |
| "Gm"GD GA B4 | "D7"Ac B/A/G/^F/ "Gm"G4 | "Cm"B c2 B "D7"(3dcB B/A/G/^F/ | "Gm"G7 :|
%%sep 0 1 12cm
